X:6
T:Famous Last Words
R:double jig
C: 1974, 2010 L.E. McCullough  
M:6/8
L:1/8
K:Ador
|:~A3 ~g3|fed edB|~A3 gfe|d (3B^cd edB|
~A3 ~g3|fed ~e3|~B3 ged|1 (3B^cd e dBG:|2 BAG ~A3|]
|:cBA BAG|AGE GAB|~c3 (3B^cd =c|BAG A2B|
~c3 ~B3|~A3 GED|~B3 ged|1BAG ~A3:|2(3B^cd e dBG|]
<end>
<start>
